X: 12899
T: Ffidl Ffadl
R: polka
M: 2/4
K: Gmajor
|:G>A BG|c>B cA|GG/A/ BG|FA FD|
G>A BG|cc/B/ cA|Bd c/B/A/G/|FA FD:|
|:Ec c2|Ec GE|Fd d2|Fd AF|
E/G/c c>G|Ec GE|Bd c/B/A/G/|FA FD:|

